src/icons/line.svg

<?xml version="1.0" encoding="UTF-8"?>
<svg width="236px" height="10px" viewBox="0 0 236 10" version="1.1" xmlns="http://www.w3.org/2000/svg" xmlns:xlink="http://www.w3.org/1999/xlink">
    <!-- Generator: sketchtool 46.2 (44496) - http://www.bohemiancoding.com/sketch -->
    <title>1CE606E4-6CDE-48DD-8141-D5208DE21180</title>
    <desc>Created with sketchtool.</desc>
    <defs></defs>
    <g id="Symbols" stroke="none" stroke-width="1" fill="none" fill-rule="evenodd">
        <g id="line" transform="translate(-16.000000, -4.000000)" fill="#151514">
            <path d="M251.902477,4.30467114 C250.742477,4.18167114 249.587477,4.21067114 248.423477,4.19567114 C247.269477,4.18167114 246.114477,4.12967114 244.964477,4.02067114 C242.401477,3.78067114 239.837477,3.53767114 237.273477,3.31567114 C232.335477,2.88967114 227.391477,2.55367114 222.441477,2.37267114 C217.901477,2.20667114 213.358477,2.10867114 208.815477,2.10867114 C207.639477,2.10867114 206.462477,2.11567114 205.286477,2.12867114 C200.783477,2.18067114 196.278477,2.23867114 191.776477,2.36267114 C181.246477,2.64867114 170.718477,2.94567114 160.196477,3.43667114 C149.917477,3.91667114 139.638477,4.43567114 129.365477,5.06567114 C124.318477,5.37567114 119.267477,5.66767114 114.220477,6.00967114 C108.765477,6.37867114 103.304477,6.70267114 97.8514771,7.12167114 C86.5974771,7.98667114 75.3434771,8.85267114 64.0904771,9.72367114 C54.3224771,10.4796711 44.5914771,11.6216711 34.9014771,13.0576711 C28.6424771,13.9836711 22.4054771,15.0686711 16.1914771,16.2496711 C16.1864771,16.2496711 16.1884771,16.2586711 16.1924771,16.2586711 C23.3364771,16.7156711 30.4854771,16.9626711 37.6444771,17.0176711 C42.3284771,17.0556711 47.0014771,16.9656711 51.6824771,16.7746711 C54.7034771,16.6506711 57.7214771,16.4866711 60.7374771,16.2736711 C62.5884771,16.1446711 64.4364771,15.9456711 66.2844771,15.7706711 C71.2334771,15.2996711 76.1824771,14.8246711 81.1334771,14.3636711 C86.7944771,13.8346711 92.4514771,13.2576711 98.1174771,12.7806711 C103.960477,12.2876711 109.803477,11.7946711 115.646477,11.3026711 C120.894477,10.8596711 126.151477,10.5026711 131.403477,10.1046711 C136.529477,9.71767114 141.660477,9.42267114 146.790477,9.09267114 C151.960477,8.76067114 157.135477,8.50967114 162.307477,8.23667114 C167.571477,7.95967114 172.844477,7.80667114 178.111477,7.60567114 C187.732477,7.23767114 197.359477,7.11767114 206.986477,7.05367114 C212.340477,7.01867114 217.692477,6.82767114 223.043477,6.64567114 C228.318477,6.46667114 233.594477,6.22067114 238.861477,5.90267114 C241.003477,5.77467114 243.155477,5.67967114 245.292477,5.46467114 C246.328477,5.36067114 247.359477,5.23567114 248.377477,5.02167114 C249.281477,4.82967114 250.167477,4.56667114 251.077477,4.39967114 L251.076477,4.39967114 C251.352477,4.36367114 251.624477,4.33567114 251.902477,4.31367114 C251.907477,4.31367114 251.907477,4.30467114 251.902477,4.30467114" id="Fill-50" transform="translate(134.047369, 9.567447) rotate(2.000000) translate(-134.047369, -9.567447) "></path>
        </g>
    </g>
</svg>

<svg height="10" viewBox="0 0 236 10" width="236" xmlns="http://www.w3.org/2000/svg"><path d="m251.902477 4.30467114c-1.16-.123-2.315-.094-3.479-.109-1.154-.014-2.309-.066-3.459-.175-2.563-.24-5.127-.483-7.691-.705-4.938-.426-9.882-.762-14.832-.943-4.54-.166-9.083-.264-13.626-.264-1.176 0-2.353.007-3.529.02-4.503.052-9.008.11-13.51.234-10.53.286-21.058.583-31.58 1.074-10.279.48-20.558.999-30.831 1.629-5.047.31-10.098.602-15.145.944-5.455.369-10.916.693-16.3689999 1.112-11.254.865-22.508 1.731-33.761 2.602-9.768.75599996-19.499 1.89799996-29.189 3.33399996-6.259.926-12.496 2.011-18.71 3.192-.005 0-.003.009.001.009 7.144.457 14.293.704 21.452.759 4.684.038 9.357-.052 14.038-.243 3.021-.124 6.039-.288 9.055-.501 1.851-.129 3.699-.328 5.547-.503 4.949-.471 9.898-.946 14.849-1.407 5.661-.529 11.318-1.106 16.984-1.583 5.8429999-.493 11.6859999-.986 17.5289999-1.478 5.248-.443 10.505-.8 15.757-1.198 5.126-.38699996 10.257-.68199996 15.387-1.01199996 5.17-.332 10.345-.583 15.517-.856 5.264-.277 10.537-.43 15.804-.631 9.621-.368 19.248-.488 28.875-.552 5.354-.035 10.706-.226 16.057-.408 5.275-.179 10.551-.425 15.818-.743 2.142-.128 4.294-.223 6.431-.438 1.036-.104 2.067-.229 3.085-.443.904-.192 1.79-.455 2.7-.622h-.001c.276-.036.548-.064.826-.086.005 0 .005-.009 0-.009" fill="#151514" fill-rule="evenodd" transform="matrix(.99939083 .0348995 -.0348995 .99939083 -15.584443 -8.672357)"/></svg>
